React/src/assets/images/frontend/jest.svg

<svg width="130" height="130" viewBox="0 0 130 130" fill="none" xmlns="http://www.w3.org/2000/svg">
<path d="M84.3875 37.5273L77.021 52.4027C79.4409 54.6447 81.1491 57.5984 81.8252 60.9436H87.3768C88.0174 57.7764 89.5832 54.9294 91.8252 52.723L84.3875 37.5273Z" fill="#F4511E"/>
<path d="M70.8288 48.8085L84.3875 21.4064L97.9106 48.9864C98.4444 48.8085 98.9782 48.6661 99.512 48.5238L112.359 10.6235H56.3805L69.1918 48.417C69.7256 48.5238 70.295 48.6661 70.8288 48.8085V48.8085Z" fill="#F4511E"/>
<path d="M66.1669 73.0433C71.1135 73.0433 75.1349 69.022 75.1349 64.0754C75.1349 62.2604 74.6011 60.5878 73.6758 59.1643C73.3911 58.7017 73.0352 58.2747 72.6794 57.8832L72.6438 57.8476C72.2879 57.4562 71.8609 57.1003 71.4338 56.8156L71.3982 56.78C71.2915 56.7088 71.1491 56.6021 71.0068 56.5309C70.9712 56.5309 70.9712 56.4953 70.9356 56.4953C70.7933 56.4241 70.6509 56.3174 70.5086 56.2462H70.473C70.3306 56.175 70.1527 56.0683 70.0103 55.9971H69.9748C69.8324 55.9259 69.6901 55.8547 69.5477 55.8192C69.5121 55.8192 69.4765 55.7836 69.4409 55.7836C69.3342 55.748 69.1918 55.6768 69.0851 55.6412C69.0495 55.6412 69.0139 55.6056 68.9427 55.6056C68.8004 55.57 68.658 55.4989 68.5157 55.4633H68.4801C68.3022 55.4277 68.1598 55.3921 67.9819 55.3565C67.9463 55.3565 67.9107 55.3565 67.8395 55.3209C67.6972 55.2854 67.5904 55.2853 67.4481 55.2498C67.3769 55.2498 67.3413 55.2498 67.2701 55.2142C67.1634 55.2142 67.021 55.1786 66.9143 55.1786H66.7363H66.2025H65.6687H65.5264C65.384 55.1786 65.2773 55.2142 65.1349 55.2142H64.9926C64.8502 55.2498 64.7079 55.2498 64.5655 55.2854H64.4588C64.2808 55.3209 64.1385 55.3565 63.9605 55.3921C60.046 56.353 57.1278 59.9117 57.1278 64.1109C57.199 68.9864 61.2203 73.0433 66.1669 73.0433V73.0433Z" fill="#F4511E"/>
<path d="M103.889 55.1074H103.818C103.676 55.1074 103.569 55.0718 103.427 55.0718H102.964C102.786 55.0718 102.608 55.0718 102.395 55.1074H102.217C102.074 55.1074 101.932 55.143 101.79 55.143C101.754 55.143 101.683 55.143 101.647 55.1785L101.113 55.2853H101.078C100.9 55.3209 100.758 55.3565 100.58 55.3921C100.544 55.3921 100.473 55.4276 100.437 55.4276C100.295 55.4632 100.153 55.4988 100.01 55.57C99.9746 55.57 99.9391 55.6056 99.9035 55.6056C99.7255 55.6768 99.5476 55.7479 99.4052 55.8191C99.2273 55.8903 99.085 55.9615 98.907 56.0326C98.8714 56.0326 98.8359 56.0682 98.8003 56.0682C98.6579 56.1394 98.5156 56.2106 98.3732 56.3173C98.3732 56.3173 98.3376 56.3173 98.3376 56.3529C98.0174 56.5308 97.6971 56.7444 97.4124 56.9935L97.3768 57.0291C96.9142 57.3849 96.5227 57.7764 96.1312 58.2034C95.7398 58.6305 95.4195 59.1287 95.1348 59.6269C94.3875 60.9436 93.9604 62.4739 93.9604 64.0753C93.9604 69.0219 97.9818 73.0432 102.928 73.0432C107.875 73.0432 111.896 69.0219 111.896 64.0753C111.896 59.7337 108.765 56.0682 104.672 55.2497C104.459 55.1785 104.174 55.143 103.889 55.1074V55.1074Z" fill="#F4511E"/>
<path d="M28.9784 73.0432C33.925 73.0432 37.9464 69.0218 37.9464 64.0752C37.9464 59.1286 33.925 55.1073 28.9784 55.1073C24.0318 55.1073 20.0105 59.1286 20.0105 64.0752C20.0105 69.0218 24.0318 73.0432 28.9784 73.0432V73.0432Z" fill="#F4511E"/>
<path d="M103 79.9827C95.5975 79.9827 89.3697 74.8938 87.5904 68.061H81.6117C79.8324 74.8938 73.6046 79.9827 66.2025 79.9827C65.3484 79.9827 64.5299 79.9115 63.747 79.8048C61.683 82.972 59.2275 85.8902 56.3449 88.5948C51.256 93.399 45.4909 96.9577 39.2631 99.1997L37.804 99.7335L36.4517 99.0218C28.9785 95.1784 25.1351 87.3848 26.4874 79.8404C25.6333 79.698 24.8148 79.4845 24.0319 79.1998C23.8895 79.4489 23.7827 79.7336 23.6404 80.0183C21.3628 84.7158 18.9785 89.5556 18.1244 94.7513C17.1991 100.303 16.8077 110.445 24.6368 115.854C28.0532 118.203 31.6475 119.378 35.6688 119.378C43.3912 119.378 51.7186 115.249 60.5442 110.872C67.4481 107.456 74.5655 103.897 81.9676 102.082C84.779 101.406 87.6259 100.979 90.3662 100.588C95.3839 99.8759 100.153 99.1641 104.032 96.9222C108.16 94.5378 110.971 90.5521 111.754 85.9969C112.252 83.2211 111.968 80.4098 111.042 77.8119C108.694 79.1642 105.953 79.9827 103 79.9827V79.9827Z" fill="#F4511E"/>
</svg>

<svg width="130" height="130" fill="none" xmlns="http://www.w3.org/2000/svg"><path d="M84.388 37.527L77.02 52.403a15.918 15.918 0 014.804 8.54h5.552a15.959 15.959 0 014.448-8.22l-7.438-15.196z" fill="#F4511E"/><path d="M70.829 48.809l13.559-27.403 13.523 27.58c.533-.177 1.067-.32 1.601-.462l12.847-37.9H56.381l12.81 37.793c.535.107 1.104.25 1.638.392zM66.167 73.043c4.947 0 8.968-4.021 8.968-8.968a8.948 8.948 0 00-1.46-4.91c-.284-.463-.64-.89-.996-1.282l-.035-.035a6.642 6.642 0 00-1.21-1.032l-.036-.036c-.106-.071-.249-.178-.391-.25-.036 0-.036-.035-.071-.035-.143-.07-.285-.178-.427-.249h-.036c-.142-.071-.32-.178-.463-.249h-.035c-.143-.071-.285-.142-.427-.178-.036 0-.072-.035-.107-.035-.107-.036-.25-.107-.356-.143-.035 0-.071-.035-.142-.035-.143-.036-.285-.107-.427-.143h-.036c-.178-.035-.32-.07-.498-.107-.036 0-.071 0-.142-.035-.143-.036-.25-.036-.392-.071-.071 0-.107 0-.178-.036-.107 0-.249-.035-.356-.035H65.526c-.142 0-.249.035-.391.035h-.142c-.143.036-.285.036-.427.071h-.107c-.178.036-.32.072-.498.107-3.915.961-6.833 4.52-6.833 8.719.071 4.875 4.092 8.932 9.039 8.932zM103.889 55.107h-.071c-.142 0-.249-.035-.391-.035h-.463c-.178 0-.356 0-.569.035h-.178c-.143 0-.285.036-.427.036-.036 0-.107 0-.143.035l-.534.107h-.035c-.178.036-.32.072-.498.107-.036 0-.107.036-.143.036-.142.035-.284.07-.427.142-.035 0-.07.036-.107.036-.178.07-.355.142-.498.213-.178.071-.32.142-.498.214-.036 0-.071.035-.107.035a2.661 2.661 0 00-.427.25s-.035 0-.035.035c-.32.178-.64.391-.926.64l-.035.036a9.73 9.73 0 00-1.246 1.174c-.391.427-.712.926-.996 1.424a9.02 9.02 0 00-1.175 4.448c0 4.947 4.022 8.968 8.968 8.968 4.947 0 8.968-4.021 8.968-8.968 0-4.341-3.131-8.007-7.224-8.825-.213-.072-.498-.107-.783-.143zM28.978 73.043c4.947 0 8.968-4.021 8.968-8.968 0-4.946-4.021-8.968-8.968-8.968-4.946 0-8.968 4.022-8.968 8.968 0 4.947 4.022 8.968 8.968 8.968z" fill="#F4511E"/><path d="M103 79.983c-7.403 0-13.63-5.09-15.41-11.922h-5.978c-1.78 6.833-8.007 11.922-15.41 11.922-.854 0-1.672-.072-2.455-.178-2.064 3.167-4.52 6.085-7.402 8.79-5.089 4.804-10.854 8.363-17.082 10.605l-1.459.534-1.352-.712c-7.473-3.844-11.317-11.637-9.965-19.182a13.818 13.818 0 01-2.455-.64c-.142.249-.25.534-.392.818-2.277 4.698-4.662 9.538-5.516 14.733-.925 5.552-1.316 15.694 6.513 21.103 3.416 2.349 7.01 3.524 11.032 3.524 7.722 0 16.05-4.129 24.875-8.506 6.904-3.416 14.022-6.975 21.424-8.79 2.811-.676 5.658-1.103 8.398-1.494 5.018-.712 9.787-1.424 13.666-3.666 4.128-2.384 6.939-6.37 7.722-10.925.498-2.776.214-5.587-.712-8.185a16.074 16.074 0 01-8.042 2.17z" fill="#F4511E"/></svg>
